build/img/weather-app/humidity.svg

<svg width="36" height="36" viewBox="0 0 36 36" fill="none" xmlns="http://www.w3.org/2000/svg">
<path d="M11.7744 25.7949C11.5888 25.7949 11.4118 25.6862 11.3335 25.5044C11.2735 25.3648 11.2515 25.2618 11.2145 25.0903C11.1972 25.0097 11.1747 24.9048 11.1405 24.7605C11.0801 24.5031 11.2398 24.2445 11.4975 24.1836C11.7532 24.1255 12.0132 24.2829 12.0746 24.5405C12.1102 24.693 12.1341 24.8036 12.1524 24.8889C12.1842 25.0369 12.1927 25.0734 12.2152 25.125C12.3196 25.3686 12.2072 25.6506 11.9641 25.7555C11.9022 25.7817 11.8381 25.7949 11.7744 25.7949Z" fill="white"/>
<path d="M17.2653 30.2688C17.2437 30.2688 17.2222 30.2679 17.2002 30.265C15.0855 29.9765 13.2163 28.7753 12.0714 26.9707C11.9294 26.7468 11.9959 26.4507 12.2199 26.3083C12.4429 26.1668 12.7394 26.2324 12.8818 26.4573C13.8745 28.0229 15.4959 29.0639 17.3295 29.314C17.5924 29.3496 17.776 29.5914 17.7404 29.8537C17.7076 30.0945 17.5014 30.2688 17.2653 30.2688Z" fill="white"/>
<path d="M18.0107 33.6652C12.3309 33.6652 7.70988 29.0442 7.70988 23.3642C7.70988 19.6993 13.0388 7.78043 14.4001 5.06564C15.309 3.25359 16.5743 2.25577 17.9638 2.25577C18.7654 2.25577 20.2945 2.62024 21.5331 5.06143C22.9685 7.89102 28.3115 19.6595 28.3115 23.3642C28.3115 29.0442 23.6904 33.6652 18.0107 33.6652ZM17.9638 4.1746C17.3562 4.1746 16.6652 4.82903 16.1157 5.92575C14.4484 9.24957 9.62874 20.4082 9.62874 23.3642C9.62874 27.9864 13.3887 31.7464 18.0107 31.7464C22.6327 31.7464 26.3926 27.9864 26.3926 23.3642C26.3926 20.4536 21.7289 9.68898 19.8223 5.92953C19.2564 4.81407 18.5789 4.1746 17.9638 4.1746Z" fill="white"/>
</svg>

<svg width="36" height="36" fill="none" xmlns="http://www.w3.org/2000/svg"><path d="M11.774 25.795a.48.48 0 01-.44-.29c-.06-.14-.082-.243-.12-.415a15.76 15.76 0 00-.074-.33.48.48 0 01.935-.22c.035.153.06.264.077.349.032.148.04.184.063.236a.48.48 0 01-.44.67zm5.491 4.474a.482.482 0 01-.065-.004 7.22 7.22 0 01-5.129-3.294.48.48 0 11.81-.514 6.258 6.258 0 004.448 2.857.48.48 0 01-.064.955z" fill="#fff"/><path d="M18.01 33.665c-5.68 0-10.3-4.62-10.3-10.3 0-3.666 5.329-15.585 6.69-18.3.909-1.811 2.174-2.81 3.564-2.81.801 0 2.33.365 3.57 2.806 1.434 2.83 6.777 14.599 6.777 18.303 0 5.68-4.62 10.301-10.3 10.301zm-.046-29.49c-.608 0-1.299.654-1.848 1.75-1.668 3.325-6.487 14.483-6.487 17.44 0 4.621 3.76 8.381 8.382 8.381s8.382-3.76 8.382-8.382c0-2.91-4.664-13.675-6.57-17.434-.567-1.116-1.244-1.755-1.86-1.755z" fill="#fff"/></svg>
